X: 25574
T: Mark In The Dark
R: slip jig
M: 9/8
K: Eminor
|:D|E2 e dBc ded|E2 e dBA GAF|
Ee/f/e dBc d2 F|G2 G GAF GA:|
|:F|E2 B BcB AGF|GDG GDG AA/G/F|
[1 E2 B BcB AB/c/d|e2 B- BdB AG:|
[2 E2 B AB/c/d ezg|zdz BzG- GA||

